X:1
T:Da New Rigged Ship
R: reel
M:4/4
L:1/8
O:Trad. (25.11.2015/NS)
K:Ador
eg |: "Am" a2ab       ageg |      agbg       agef | "G" g2gg       fgag |1 "D"   f2d2  d2eg :|2 "D" f2d2 d2ed  ||
   |: "A" ^cAcA "Em"  B2ed | "A"  ^cAcA "Em" E2ed | "A" ^cAcA "Em" B2ed |1 "A"   ^c2A2 A2ed :|2 "A" ^c2A2 A2AB ||
      "C" cdec  "G/B" BcdB | "Am" ABAF  "G"  GFE2 | "F" cdec       BcdB | "Am/E" c2A2  A2AB  |
      "D" cdec        BcdB | "Em" ABAF       GFE2 | "F" cdec       BcdB | "G"    c2A2  A2    ||
